src/assets/Imgs/lightMenu/App.svg

<svg fill="none" height="24" viewBox="0 0 24 24" width="24" xmlns="http://www.w3.org/2000/svg"><g stroke="#1a1323" stroke-linecap="round" stroke-width="1.5"><g stroke-linejoin="round"><path d="m22 8.27v-4.04c0-1.59-.64-2.23-2.23-2.23h-4.04c-1.59 0-2.23.64-2.23 2.23v4.04c0 1.59.64 2.23 2.23 2.23h4.04c1.59 0 2.23-.64 2.23-2.23z"/><path d="m10.5 8.52v-4.54c0-1.41-.64-1.98-2.23-1.98h-4.04c-1.59 0-2.23.57-2.23 1.98v4.53c0 1.42.64 1.98 2.23 1.98h4.04c1.59.01 2.23-.56 2.23-1.97z"/><path d="m10.5 19.77v-4.04c0-1.59-.64-2.23-2.23-2.23h-4.04c-1.59 0-2.23.64-2.23 2.23v4.04c0 1.59.64 2.23 2.23 2.23h4.04c1.59 0 2.23-.64 2.23-2.23z"/></g><path d="m14.5 17.5h6"/><path d="m17.5 20.5v-6"/></g></svg>

<svg width="24" height="24" viewBox="0 0 24 24" fill="none" xmlns="http://www.w3.org/2000/svg">
<g id="App">
<g id="element-plus">
<path id="Vector" d="M22 8.27V4.23C22 2.64 21.36 2 19.77 2H15.73C14.14 2 13.5 2.64 13.5 4.23V8.27C13.5 9.86 14.14 10.5 15.73 10.5H19.77C21.36 10.5 22 9.86 22 8.27Z" stroke="#1A1323" stroke-width="1.5" stroke-linecap="round" stroke-linejoin="round"/>
<path id="Vector_2" d="M10.5 8.52V3.98C10.5 2.57 9.86 2 8.27 2H4.23C2.64 2 2 2.57 2 3.98V8.51C2 9.93 2.64 10.49 4.23 10.49H8.27C9.86 10.5 10.5 9.93 10.5 8.52Z" stroke="#1A1323" stroke-width="1.5" stroke-linecap="round" stroke-linejoin="round"/>
<path id="Vector_3" d="M10.5 19.77V15.73C10.5 14.14 9.86 13.5 8.27 13.5H4.23C2.64 13.5 2 14.14 2 15.73V19.77C2 21.36 2.64 22 4.23 22H8.27C9.86 22 10.5 21.36 10.5 19.77Z" stroke="#1A1323" stroke-width="1.5" stroke-linecap="round" stroke-linejoin="round"/>
<path id="Vector_4" d="M14.5 17.5H20.5" stroke="#1A1323" stroke-width="1.5" stroke-linecap="round"/>
<path id="Vector_5" d="M17.5 20.5V14.5" stroke="#1A1323" stroke-width="1.5" stroke-linecap="round"/>
</g>
</g>
</svg>
